icons/star-line-horizontal.svg

<svg width="16" height="16" viewBox="0 0 16 16" fill="#f4f4f7" fill-opacity="context-fill-opacity"
    xmlns="http://www.w3.org/2000/svg">
    <path
        d="M8.80802 2.10179C8.47789 1.43287 7.52403 1.43287 7.1939 2.10179L5.67281 5.18384L2.27156 5.67807C1.53336 5.78534 1.23861 6.69251 1.77277 7.2132L4.23394 9.61224L3.65294 12.9997C3.52684 13.735 4.29853 14.2956 4.95879 13.9485L8.00096 12.3491L8.4829 12.6025C8.18597 12.3284 8 11.9359 8 11.5C8 11.4446 8.003 11.39 8.00884 11.3362C7.86236 11.3349 7.71564 11.3694 7.58215 11.4395L4.6728 12.9691L5.22843 9.72947C5.27851 9.43751 5.18171 9.13961 4.9696 8.93285L2.61588 6.63854L5.86864 6.16589C6.16178 6.12329 6.41519 5.93918 6.54628 5.67355L8.00096 2.72605L8.73351 4.21036C8.95782 4.07675 9.21995 4 9.5 4H9.74485L8.80802 2.10179ZM9.5 5C9.22386 5 9 5.22386 9 5.5C9 5.77614 9.22386 6 9.5 6H14.5C14.7761 6 15 5.77614 15 5.5C15 5.22386 14.7761 5 14.5 5H9.5ZM9.5 8C9.22386 8 9 8.22386 9 8.5C9 8.77614 9.22386 9 9.5 9H14.5C14.7761 9 15 8.77614 15 8.5C15 8.22386 14.7761 8 14.5 8H9.5ZM9.5 11C9.22386 11 9 11.2239 9 11.5C9 11.7761 9.22386 12 9.5 12H14.5C14.7761 12 15 11.7761 15 11.5C15 11.2239 14.7761 11 14.5 11H9.5Z" />
</svg>

<svg xmlns="http://www.w3.org/2000/svg" width="32" height="16" fill="#f4f4f7" fill-opacity="context-fill-opacity">
    <path
        d="M8.808 2.102a.9.9 0 0 0-1.614 0L5.673 5.184l-3.401.494a.9.9 0 0 0-.5 1.535l2.462 2.4L3.653 13a.9.9 0 0 0 1.306.948L8 12.35l.482.253a1.496 1.496 0 0 1-.474-1.266.9.9 0 0 0-.427.104l-2.91 1.53.556-3.24a.9.9 0 0 0-.258-.797L2.616 6.639l3.253-.473a.9.9 0 0 0 .677-.492l1.455-2.948.733 1.484C8.958 4.077 9.22 4 9.5 4h.245l-.937-1.898ZM9.5 5a.5.5 0 0 0 0 1h5a.5.5 0 0 0 0-1h-5Zm0 3a.5.5 0 0 0 0 1h5a.5.5 0 0 0 0-1h-5Zm0 3a.5.5 0 0 0 0 1h5a.5.5 0 0 0 0-1h-5Z" />
</svg>
